P3
60 60
255
193 193 193 196 196 196 198 198 198 199 199 199 199 199 199 198 198 198 196 196 196 193 193 193 189 189 189 184 184 184 178 178 178 171 171 171 163 163 163 154 154 154 144 144 144 133 133 133 121 121 121 109 109 109 95 95 95 80 80 80 64 64 64 47 47 47 29 29 29 10 10 10 10 10 10 28 28 28 45 45 45 61 61 61 74 74 74 87 87 87 98 98 98 108 108 108 116 116 116 119 119 119 122 122 122 124 124 124 126 126 126 127 127 127 128 128 128 128 128 128 127 127 127 123 123 123 120 120 120 115 115 115 110 110 110 105 105 105 99 99 99 93 93 93 87 87 87 80 80 80 74 74 74 67 67 67 60 60 60 54 54 54 47 47 47 41 41 41 35 35 35 29 29 29 23 23 23 18 18 18 
197 197 197 201 201 201 204 204 204 205 205 205 205 205 205 204 204 204 202 202 202 199 199 199 195 195 195 190 190 190 183 183 183 176 176 176 168 168 168 158 158 158 148 148 148 137 137 137 124 124 124 111 111 111 97 97 97 81 81 81 64 64 64 46 46 46 27 27 27 6 6 6 14 14 14 33 33 33 51 51 51 66 66 66 81 81 81 93 93 93 105 105 105 115 115 115 119 119 119 123 123 123 126 126 126 128 128 128 130 130 130 132 132 132 132 132 132 133 133 133 132 132 132 128 128 128 124 124 124 119 119 119 114 114 114 108 108 108 102 102 102 95 95 95 88 88 88 81 81 81 74 74 74 67 67 67 60 60 60 53 53 53 46 46 46 39 39 39 32 32 32 26 26 26 20 20 20 15 15 15 
201 201 201 205 205 205 208 208 208 211 211 211 211 211 211 211 211 211 209 209 209 206 206 206 202 202 202 196 196 196 189 189 189 181 181 181 172 172 172 163 163 163 152 152 152 140 140 140 127 127 127 113 113 113 98 98 98 82 82 82 64 64 64 45 45 45 25 25 25 3 3 3 19 19 19 38 38 38 56 56 56 72 72 72 87 87 87 100 100 100 111 111 111 118 118 118 123 123 123 127 127 127 131 131 131 133 133 133 135 135 135 137 137 137 138 138 138 138 138 138 137 137 137 133 133 133 129 129 129 123 123 123 118 118 118 111 111 111 104 104 104 97 97 97 90 90 90 82 82 82 74 74 74 67 67 67 59 59 59 51 51 51 44 44 44 36 36 36 29 29 29 23 23 23 17 17 17 11 11 11 
205 205 205 209 209 209 213 213 213 216 216 216 218 218 218 218 218 218 216 216 216 213 213 213 208 208 208 202 202 202 195 195 195 186 186 186 177 177 177 166 166 166 155 155 155 143 143 143 129 129 129 115 115 115 99 99 99 82 82 82 63 63 63 43 43 43 22 22 22 1 1 1 23 23 23 44 44 44 62 62 62 79 79 79 93 93 93 107 107 107 116 116 116 122 122 122 127 127 127 132 132 132 135 135 135 138 138 138 141 141 141 142 142 142 143 143 143 143 143 143 143 143 143 139 139 139 134 134 134 128 128 128 122 122 122 115 115 115 107 107 107 99 99 99 91 91 91 83 83 83 74 74 74 66 66 66 57 57 57 49 49 49 41 41 41 33 33 33 26 26 26 19 19 19 12 12 12 6 6 6 
208 208 208 214 214 214 218 218 218 222 222 222 224 224 224 225 225 225 223 223 223 219 219 219 214 214 214 207 207 207 200 200 200 191 191 191 181 181 181 170 170 170 158 158 158 145 145 145 131 131 131 116 116 116 99 99 99 82 82 82 62 62 62 41 41 41 18 18 18 5 5 5 29 29 29 49 49 49 68 68 68 85 85 85 100 100 100 112 112 112 119 119 119 125 125 125 131 131 131 136 136 136 140 140 140 144 144 144 146 146 146 148 148 148 149 149 149 149 149 149 148 148 148 144 144 144 139 139 139 133 133 133 126 126 126 118 118 118 110 110 110 101 101 101 92 92 92 83 83 83 74 74 74 64 64 64 55 55 55 46 46 46 38 38 38 30 30 30 22 22 22 14 14 14 8 8 8 1 1 1 
211 211 211 217 217 217 223 223 223 228 228 228 231 231 231 232 232 232 230 230 230 226 226 226 220 220 220 213 213 213 204 204 204 194 194 194 184 184 184 173 173 173 160 160 160 147 147 147 132 132 132 116 116 116 99 99 99 81 81 81 61 61 61 39 39 39 15 15 15 10 10 10 34 34 34 55 55 55 74 74 74 91 91 91 107 107 107 114 114 114 121 121 121 128 128 128 135 135 135 141 141 141 145 145 145 149 149 149 152 152 152 154 154 154 156 156 156 156 156 156 155 155 155 150 150 150 145 145 145 138 138 138 130 130 130 121 121 121 112 112 112 103 103 103 93 93 93 83 83 83 73 73 73 63 63 63 53 53 53 43 43 43 34 34 34 25 25 25 17 17 17 9 9 9 2 2 2 4 4 4 
213 213 213 220 220 220 227 227 227 233 233 233 237 237 237 239 239 239 237 237 237 232 232 232 225 225 225 217 217 217 207 207 207 197 197 197 186 186 186 174 174 174 162 162 162 148 148 148 133 133 133 116 116 116 99 99 99 80 80 80 59 59 59 36 36 36 10 10 10 15 15 15 39 39 39 61 61 61 80 80 80 97 97 97 107 107 107 116 116 116 123 123 123 131 131 131 139 139 139 146 146 146 151 151 151 155 155 155 159 159 159 161 161 161 163 163 163 163 163 163 161 161 161 157 157 157 151 151 151 143 143 143 134 134 134 125 125 125 115 115 115 104 104 104 93 93 93 82 82 82 71 71 71 60 60 60 49 49 49 39 39 39 29 29 29 20 20 20 11 11 11 3 3 3 4 4 4 10 10 10 
214 214 214 222 222 222 229 229 229 237 237 237 243 243 243 247 247 247 243 243 243 237 237 237 228 228 228 219 219 219 209 209 209 199 199 199 188 188 188 175 175 175 162 162 162 148 148 148 133 133 133 116 116 116 98 98 98 78 78 78 56 56 56 32 32 32 6 6 6 20 20 20 45 45 45 66 66 66 86 86 86 99 99 99 108 108 108 117 117 117 126 126 126 134 134 134 143 143 143 151 151 151 157 157 157 162 162 162 166 166 166 169 169 169 170 170 170 170 170 170 169 169 169 164 164 164 157 157 157 148 148 148 138 138 138 128 128 128 117 117 117 105 105 105 93 93 93 80 80 80 68 68 68 56 56 56 45 45 45 34 34 34 23 23 23 13 13 13 4 4 4 4 4 4 11 11 11 17 17 17 
214 214 214 222 222 222 230 230 230 238 238 238 246 246 246 255 255 255 246 246 246 238 238 238 229 229 229 220 220 220 210 210 210 199 199 199 188 188 188 175 175 175 162 162 162 147 147 147 131 131 131 114 114 114 96 96 96 75 75 75 53 53 53 28 28 28 1 1 1 26 26 26 50 50 50 72 72 72 89 89 89 98 98 98 107 107 107 117 117 117 127 127 127 137 137 137 146 146 146 155 155 155 163 163 163 169 169 169 174 174 174 177 177 177 179 179 179 178 178 178 176 176 176 171 171 171 163 163 163 153 153 153 142 142 142 131 131 131 118 118 118 105 105 105 92 92 92 78 78 78 65 65 65 52 52 52 39 39 39 27 27 27 16 16 16 5 5 5 3 3 3 12 12 12 19 19 19 25 25 25 
212 212 212 220 220 220 228 228 228 236 236 236 242 242 242 246 246 246 242 242 242 236 236 236 227 227 227 218 218 218 209 209 209 198 198 198 186 186 186 174 174 174 160 160 160 146 146 146 130 130 130 112 112 112 93 93 93 72 72 72 49 49 49 24 24 24 3 3 3 31 31 31 55 55 55 76 76 76 86 86 86 96 96 96 106 106 106 117 117 117 128 128 128 139 139 139 150 150 150 160 160 160 169 169 169 176 176 176 182 182 182 186 186 186 188 188 188 188 188 188 185 185 185 179 179 179 170 170 170 159 159 159 146 146 146 133 133 133 119 119 119 104 104 104 89 89 89 74 74 74 60 60 60 46 46 46 32 32 32 19 19 19 7 7 7 3 3 3 13 13 13 21 21 21 27 27 27 33 33 33 
208 208 208 216 216 216 223 223 223 230 230 230 235 235 235 237 237 237 235 235 235 230 230 230 223 223 223 214 214 214 205 205 205 195 195 195 184 184 184 171 171 171 158 158 158 143 143 143 127 127 127 109 109 109 90 90 90 69 69 69 45 45 45 19 19 19 9 9 9 36 36 36 60 60 60 72 72 72 82 82 82 93 93 93 104 104 104 116 116 116 128 128 128 140 140 140 153 153 153 164 164 164 174 174 174 184 184 184 191 191 191 196 196 196 199 199 199 197 197 197 193 193 193 187 187 187 176 176 176 163 163 163 149 149 149 134 134 134 118 118 118 102 102 102 86 86 86 69 69 69 53 53 53 38 38 38 23 23 23 9 9 9 3 3 3 14 14 14 23 23 23 30 30 30 36 36 36 41 41 41 
202 202 202 209 209 209 216 216 216 222 222 222 226 226 226 227 227 227 226 226 226 222 222 222 216 216 216 209 209 209 199 199 199 189 189 189 178 178 178 167 167 167 154 154 154 140 140 140 124 124 124 106 106 106 86 86 86 65 65 65 41 41 41 14 14 14 14 14 14 41 41 41 56 56 56 66 66 66 76 76 76 88 88 88 100 100 100 113 113 113 127 127 127 140 140 140 154 154 154 168 168 168 180 180 180 191 191 191 201 201 201 207 207 207 210 210 210 208 208 208 203 203 203 194 194 194 182 182 182 167 167 167 151 151 151 134 134 134 117 117 117 99 99 99 80 80 80 62 62 62 45 45 45 28 28 28 12 12 12 2 2 2 15 15 15 25 25 25 34 34 34 40 40 40 46 46 46 50 50 50 
195 195 195 202 202 202 208 208 208 212 212 212 216 216 216 217 217 217 216 216 216 212 212 212 208 208 208 201 201 201 193 193 193 183 183 183 172 172 172 160 160 160 147 147 147 133 133 133 118 118 118 102 102 102 82 82 82 60 60 60 36 36 36 9 9 9 19 19 19 39 39 39 48 48 48 58 58 58 69 69 69 82 82 82 95 95 95 109 109 109 123 123 123 138 138 138 154 154 154 169 169 169 183 183 183 197 197 197 210 210 210 219 219 219 223 223 223 220 220 220 211 211 211 201 201 201 186 186 186 169 169 169 151 151 151 133 133 133 113 113 113 93 93 93 73 73 73 53 53 53 33 33 33 15 15 15 1 1 1 16 16 16 28 28 28 38 38 38 45 45 45 51 51 51 54 54 54 51 51 51 
186 186 186 192 192 192 198 198 198 202 202 202 205 205 205 205 205 205 205 205 205 202 202 202 198 198 198 192 192 192 185 185 185 175 175 175 164 164 164 152 152 152 139 139 139 125 125 125 109 109 109 93 93 93 76 76 76 55 55 55 31 31 31 3 3 3 21 21 21 29 29 29 38 38 38 49 49 49 60 60 60 73 73 73 87 87 87 102 102 102 118 118 118 134 134 134 151 151 151 169 169 169 185 185 185 201 201 201 217 217 217 231 231 231 238 238 238 231 231 231 218 218 218 205 205 205 188 188 188 169 169 169 149 149 149 129 129 129 107 107 107 85 85 85 62 62 62 40 40 40 19 19 19 0 0 0 18 18 18 31 31 31 42 42 42 51 51 51 57 57 57 59 59 59 56 56 56 53 53 53 
176 176 176 182 182 182 187 187 187 190 190 190 193 193 193 193 193 193 193 193 193 190 190 190 187 187 187 182 182 182 176 176 176 166 166 166 155 155 155 143 143 143 129 129 129 115 115 115 99 99 99 82 82 82 63 63 63 44 44 44 23 23 23 1 1 1 9 9 9 17 17 17 26 26 26 37 37 37 49 49 49 62 62 62 76 76 76 92 92 92 109 109 109 127 127 127 145 145 145 164 164 164 182 182 182 200 200 200 218 218 218 236 236 236 255 255 255 237 237 237 220 220 220 204 204 204 187 187 187 166 166 166 144 144 144 121 121 121 98 98 98 73 73 73 48 48 48 24 24 24 0 0 0 19 19 19 35 35 35 48 48 48 57 57 57 65 65 65 65 65 65 61 61 61 58 58 58 54 54 54 
165 165 165 170 170 170 174 174 174 177 177 177 179 179 179 180 180 180 179 179 179 177 177 177 174 174 174 170 170 170 165 165 165 156 156 156 145 145 145 132 132 132 119 119 119 104 104 104 87 87 87 69 69 69 50 50 50 29 29 29 7 7 7 9 9 9 3 3 3 3 3 3 12 12 12 22 22 22 34 34 34 47 47 47 62 62 62 79 79 79 97 97 97 116 116 116 136 136 136 156 156 156 174 174 174 192 192 192 211 211 211 227 227 227 235 235 235 228 228 228 214 214 214 198 198 198 181 181 181 159 159 159 136 136 136 111 111 111 84 84 84 57 57 57 30 30 30 3 3 3 21 21 21 39 39 39 54 54 54 65 65 65 73 73 73 71 71 71 68 68 68 64 64 64 60 60 60 56 56 56 
152 152 152 157 157 157 161 161 161 163 163 163 165 165 165 166 166 166 165 165 165 163 163 163 161 161 161 157 157 157 152 152 152 145 145 145 134 134 134 121 121 121 107 107 107 91 91 91 74 74 74 55 55 55 34 34 34 12 12 12 10 10 10 22 22 22 17 17 17 11 11 11 4 4 4 5 5 5 16 16 16 29 29 29 44 44 44 61 61 61 80 80 80 100 100 100 121 121 121 142 142 142 160 160 160 178 178 178 195 195 195 208 208 208 213 213 213 209 209 209 199 199 199 186 186 186 170 170 170 147 147 147 122 122 122 95 95 95 66 66 66 36 36 36 5 5 5 22 22 22 44 44 44 61 61 61 73 73 73 82 82 82 79 79 79 75 75 75 71 71 71 66 66 66 62 62 62 57 57 57 
138 138 138 142 142 142 146 146 146 148 148 148 150 150 150 150 150 150 150 150 150 148 148 148 146 146 146 142 142 142 138 138 138 134 134 134 122 122 122 109 109 109 94 94 94 78 78 78 60 60 60 40 40 40 18 18 18 5 5 5 28 28 28 35 35 35 32 32 32 28 28 28 22 22 22 15 15 15 5 5 5 6 6 6 21 21 21 38 38 38 57 57 57 78 78 78 100 100 100 122 122 122 139 139 139 156 156 156 171 171 171 182 182 182 187 187 187 186 186 186 178 178 178 168 168 168 154 154 154 131 131 131 104 104 104 75 75 75 43 43 43 9 9 9 23 23 23 48 48 48 68 68 68 82 82 82 90 90 90 87 87 87 83 83 83 79 79 79 74 74 74 69 69 69 64 64 64 58 58 58 
122 122 122 126 126 126 129 129 129 131 131 131 133 133 133 133 133 133 133 133 133 131 131 131 129 129 129 126 126 126 122 122 122 118 118 118 110 110 110 96 96 96 81 81 81 63 63 63 44 44 44 23 23 23 0 0 0 23 23 23 44 44 44 45 45 45 45 45 45 44 44 44 41 41 41 36 36 36 29 29 29 20 20 20 7 7 7 8 8 8 28 28 28 49 49 49 72 72 72 94 94 94 111 111 111 127 127 127 141 141 141 151 151 151 157 157 157 157 157 157 153 153 153 145 145 145 135 135 135 110 110 110 82 82 82 49 49 49 13 13 13 23 23 23 52 52 52 75 75 75 92 92 92 98 98 98 96 96 96 93 93 93 89 89 89 84 84 84 78 78 78 71 71 71 65 65 65 59 59 59 
105 105 105 108 108 108 111 111 111 113 113 113 114 114 114 114 114 114 114 114 114 113 113 113 111 111 111 108 108 108 105 105 105 101 101 101 96 96 96 82 82 82 66 66 66 48 48 48 28 28 28 5 5 5 18 18 18 40 40 40 47 47 47 48 48 48 49 49 49 50 50 50 50 50 50 49 49 49 48 48 48 46 46 46 38 38 38 26 26 26 10 10 10 11 11 11 35 35 35 59 59 59 74 74 74 89 89 89 103 103 103 113 113 113 120 120 120 122 122 122 121 121 121 117 117 117 111 111 111 85 85 85 53 53 53 17 17 17 22 22 22 55 55 55 81 81 81 101 101 101 106 106 106 106 106 106 104 104 104 100 100 100 95 95 95 88 88 88 81 81 81 74 74 74 66 66 66 59 59 59 
86 86 86 88 88 88 91 91 91 92 92 92 93 93 93 93 93 93 93 93 93 92 92 92 91 91 91 88 88 88 86 86 86 83 83 83 80 80 80 68 68 68 51 51 51 32 32 32 10 10 10 12 12 12 34 34 34 49 49 49 50 50 50 52 52 52 53 53 53 54 54 54 55 55 55 55 55 55 55 55 55 53 53 53 50 50 50 44 44 44 37 37 37 26 26 26 12 12 12 13 13 13 26 26 26 41 41 41 54 54 54 66 66 66 75 75 75 81 81 81 84 84 84 83 83 83 82 82 82 55 55 55 20 20 20 20 20 20 55 55 55 85 85 85 108 108 108 113 113 113 116 116 116 116 116 116 113 113 113 108 108 108 102 102 102 93 93 93 84 84 84 75 75 75 67 67 67 59 59 59 
64 64 64 66 66 66 68 68 68 69 69 69 70 70 70 70 70 70 70 70 70 69 69 69 68 68 68 66 66 66 64 64 64 62 62 62 60 60 60 53 53 53 35 35 35 15 15 15 7 7 7 29 29 29 50 50 50 52 52 52 54 54 54 56 56 56 58 58 58 59 59 59 61 61 61 62 62 62 62 62 62 61 61 61 58 58 58 53 53 53 45 45 45 33 33 33 18 18 18 0 0 0 18 18 18 20 20 20 7 7 7 7 7 7 20 20 20 31 31 31 39 39 39 44 44 44 47 47 47 22 22 22 17 17 17 53 53 53 85 85 85 108 108 108 116 116 116 123 123 123 127 127 127 128 128 128 124 124 124 118 118 118 109 109 109 98 98 98 87 87 87 76 76 76 66 66 66 57 57 57 
41 41 41 42 42 42 43 43 43 44 44 44 44 44 44 45 45 45 44 44 44 44 44 44 43 43 43 42 42 42 41 41 41 39 39 39 37 37 37 36 36 36 19 19 19 1 1 1 23 23 23 44 44 44 52 52 52 54 54 54 57 57 57 59 59 59 62 62 62 64 64 64 67 67 67 69 69 69 70 70 70 71 71 71 69 69 69 64 64 64 56 56 56 42 42 42 23 23 23 0 0 0 23 23 23 42 42 42 56 56 56 54 54 54 41 41 41 26 26 26 13 13 13 1 1 1 7 7 7 13 13 13 49 49 49 82 82 82 104 104 104 114 114 114 125 125 125 134 134 134 140 140 140 142 142 142 138 138 138 129 129 129 116 116 116 102 102 102 89 89 89 76 76 76 64 64 64 54 54 54 
14 14 14 14 14 14 15 15 15 15 15 15 15 15 15 15 15 15 15 15 15 15 15 15 15 15 15 14 14 14 14 14 14 13 13 13 13 13 13 12 12 12 3 3 3 17 17 17 38 38 38 52 52 52 54 54 54 57 57 57 60 60 60 63 63 63 66 66 66 69 69 69 73 73 73 76 76 76 79 79 79 81 81 81 82 82 82 79 79 79 71 71 71 55 55 55 32 32 32 0 0 0 32 32 32 55 55 55 71 71 71 79 79 79 82 82 82 74 74 74 59 59 59 45 45 45 23 23 23 24 24 24 66 66 66 94 94 94 106 106 106 119 119 119 134 134 134 147 147 147 157 157 157 160 160 160 154 154 154 140 140 140 123 123 123 105 105 105 88 88 88 73 73 73 60 60 60 50 50 50 
14 14 14 14 14 14 15 15 15 15 15 15 15 15 15 15 15 15 15 15 15 15 15 15 15 15 15 14 14 14 14 14 14 13 13 13 13 13 13 12 12 12 0 0 0 21 21 21 42 42 42 53 53 53 56 56 56 59 59 59 62 62 62 66 66 66 70 70 70 74 74 74 79 79 79 84 84 84 89 89 89 93 93 93 96 96 96 96 96 96 90 90 90 74 74 74 44 44 44 0 0 0 44 44 44 74 74 74 90 90 90 96 96 96 96 96 96 93 93 93 89 89 89 74 74 74 32 32 32 19 19 19 66 66 66 92 92 92 106 106 106 122 122 122 140 140 140 160 160 160 176 176 176 182 182 182 173 173 173 153 153 153 128 128 128 105 105 105 84 84 84 67 67 67 53 53 53 42 42 42 
41 41 41 42 42 42 43 43 43 44 44 44 44 44 44 45 45 45 44 44 44 44 44 44 43 43 43 42 42 42 41 41 41 39 39 39 37 37 37 29 29 29 9 9 9 13 13 13 35 35 35 54 54 54 57 57 57 61 61 61 64 64 64 69 69 69 73 73 73 78 78 78 84 84 84 91 91 91 98 98 98 105 105 105 112 112 112 117 117 117 116 116 116 102 102 102 64 64 64 0 0 0 64 64 64 102 102 102 116 116 116 117 117 117 112 112 112 105 105 105 98 98 98 84 84 84 40 40 40 14 14 14 64 64 64 86 86 86 101 101 101 120 120 120 143 143 143 170 170 170 197 197 197 213 213 213 194 194 194 161 161 161 127 127 127 98 98 98 74 74 74 56 56 56 42 42 42 32 32 32 
64 64 64 66 66 66 68 68 68 69 69 69 70 70 70 70 70 70 70 70 70 69 69 69 68 68 68 66 66 66 64 64 64 62 62 62 57 57 57 40 40 40 19 19 19 4 4 4 28 28 28 51 51 51 59 59 59 62 62 62 66 66 66 71 71 71 76 76 76 82 82 82 88 88 88 96 96 96 106 106 106 116 116 116 128 128 128 140 140 140 149 149 149 140 140 140 96 96 96 0 0 0 96 96 96 140 140 140 149 149 149 140 140 140 128 128 128 116 116 116 106 106 106 93 93 93 48 48 48 7 7 7 61 61 61 77 77 77 91 91 91 110 110 110 135 135 135 167 167 167 207 207 207 255 255 255 204 204 204 154 154 154 112 112 112 80 80 80 55 55 55 38 38 38 26 26 26 7 7 7 
86 86 86 88 88 88 91 91 91 92 92 92 93 93 93 93 93 93 93 93 93 92 92 92 91 91 91 88 88 88 86 86 86 83 83 83 68 68 68 51 51 51 30 30 30 6 6 6 19 19 19 44 44 44 59 59 59 63 63 63 67 67 67 72 72 72 77 77 77 84 84 84 91 91 91 100 100 100 111 111 111 124 124 124 140 140 140 161 161 161 184 184 184 193 193 193 140 140 140 0 0 0 140 140 140 193 193 193 184 184 184 161 161 161 140 140 140 124 124 124 111 111 111 100 100 100 55 55 55 0 0 0 53 53 53 62 62 62 74 74 74 90 90 90 112 112 112 140 140 140 174 174 174 193 193 193 164 164 164 116 116 116 74 74 74 44 44 44 25 25 25 12 12 12 0 0 0 24 24 24 
105 105 105 108 108 108 111 111 111 113 113 113 114 114 114 114 114 114 114 114 114 113 113 113 111 111 111 108 108 108 105 105 105 95 95 95 80 80 80 62 62 62 41 41 41 18 18 18 9 9 9 35 35 35 60 60 60 63 63 63 68 68 68 72 72 72 78 78 78 85 85 85 92 92 92 102 102 102 113 113 113 127 127 127 145 145 145 170 170 170 204 204 204 255 255 255 170 170 170 0 0 0 170 170 170 255 255 255 204 204 204 170 170 170 145 145 145 127 127 127 113 113 113 102 102 102 61 61 61 7 7 7 37 37 37 43 43 43 50 50 50 59 59 59 71 71 71 84 84 84 96 96 96 93 93 93 64 64 64 26 26 26 0 0 0 13 13 13 18 18 18 7 7 7 23 23 23 43 43 43 
122 122 122 126 126 126 129 129 129 131 131 131 133 133 133 133 133 133 133 133 133 131 131 131 129 129 129 126 126 126 119 119 119 106 106 106 91 91 91 73 73 73 53 53 53 30 30 30 2 2 2 25 25 25 52 52 52 63 63 63 67 67 67 72 72 72 77 77 77 84 84 84 91 91 91 100 100 100 111 111 111 124 124 124 140 140 140 161 161 161 184 184 184 193 193 193 140 140 140 0 0 0 140 140 140 193 193 193 184 184 184 161 161 161 140 140 140 124 124 124 111 111 111 100 100 100 64 64 64 14 14 14 19 19 19 20 20 20 19 19 19 18 18 18 13 13 13 0 0 0 26 26 26 64 64 64 93 93 93 96 96 96 84 84 84 71 71 71 31 31 31 18 18 18 49 49 49 66 66 66 
138 138 138 142 142 142 146 146 146 148 148 148 150 150 150 150 150 150 150 150 150 148 148 148 146 146 146 140 140 140 130 130 130 117 117 117 102 102 102 85 85 85 65 65 65 42 42 42 15 15 15 14 14 14 42 42 42 56 56 56 66 66 66 71 71 71 76 76 76 82 82 82 88 88 88 96 96 96 106 106 106 116 116 116 128 128 128 140 140 140 149 149 149 140 140 140 96 96 96 0 0 0 96 96 96 140 140 140 149 149 149 140 140 140 128 128 128 116 116 116 106 106 106 96 96 96 66 66 66 19 19 19 0 0 0 4 4 4 12 12 12 25 25 25 44 44 44 74 74 74 116 116 116 164 164 164 193 193 193 174 174 174 140 140 140 74 74 74 0 0 0 54 54 54 82 82 82 93 93 93 
152 152 152 157 157 157 161 161 161 163 163 163 165 165 165 166 166 166 165 165 165 163 163 163 156 156 156 148 148 148 138 138 138 126 126 126 113 113 113 96 96 96 77 77 77 54 54 54 28 28 28 1 1 1 32 32 32 41 41 41 51 51 51 63 63 63 73 73 73 78 78 78 84 84 84 91 91 91 98 98 98 105 105 105 112 112 112 117 117 117 116 116 116 102 102 102 64 64 64 0 0 0 64 64 64 102 102 102 116 116 116 117 117 117 112 112 112 105 105 105 98 98 98 91 91 91 60 60 60 12 12 12 17 17 17 26 26 26 38 38 38 55 55 55 80 80 80 112 112 112 154 154 154 204 204 204 255 255 255 204 204 204 134 134 134 42 42 42 53 53 53 102 102 102 120 120 120 123 123 123 
165 165 165 170 170 170 174 174 174 177 177 177 179 179 179 180 180 180 177 177 177 172 172 172 165 165 165 156 156 156 145 145 145 132 132 132 118 118 118 101 101 101 83 83 83 63 63 63 40 40 40 11 11 11 14 14 14 22 22 22 32 32 32 43 43 43 56 56 56 70 70 70 79 79 79 84 84 84 89 89 89 93 93 93 96 96 96 96 96 96 90 90 90 74 74 74 44 44 44 0 0 0 44 44 44 74 74 74 90 90 90 96 96 96 96 96 96 93 93 93 89 89 89 84 84 84 50 50 50 3 3 3 32 32 32 42 42 42 56 56 56 74 74 74 98 98 98 127 127 127 161 161 161 194 194 194 207 207 207 174 174 174 96 96 96 26 26 26 116 116 116 154 154 154 161 161 161 153 153 153 
176 176 176 182 182 182 187 187 187 190 190 190 191 191 191 190 190 190 187 187 187 181 181 181 173 173 173 164 164 164 152 152 152 138 138 138 122 122 122 105 105 105 85 85 85 63 63 63 40 40 40 14 14 14 5 5 5 0 0 0 9 9 9 19 19 19 30 30 30 44 44 44 58 58 58 74 74 74 79 79 79 81 81 81 82 82 82 79 79 79 71 71 71 55 55 55 32 32 32 0 0 0 32 32 32 55 55 55 71 71 71 79 79 79 82 82 82 81 81 81 79 79 79 76 76 76 39 39 39 5 5 5 42 42 42 53 53 53 67 67 67 84 84 84 105 105 105 128 128 128 153 153 153 161 161 161 154 154 154 116 116 116 26 26 26 96 96 96 174 174 174 207 207 207 197 197 197 176 176 176 
186 186 186 192 192 192 197 197 197 200 200 200 201 201 201 200 200 200 196 196 196 191 191 191 182 182 182 172 172 172 159 159 159 144 144 144 127 127 127 108 108 108 86 86 86 63 63 63 37 37 37 8 8 8 20 20 20 22 22 22 17 17 17 10 10 10 1 1 1 10 10 10 24 24 24 39 39 39 55 55 55 71 71 71 69 69 69 64 64 64 56 56 56 42 42 42 23 23 23 0 0 0 23 23 23 42 42 42 56 56 56 64 64 64 69 69 69 71 71 71 70 70 70 65 65 65 29 29 29 13 13 13 50 50 50 60 60 60 73 73 73 88 88 88 105 105 105 119 119 119 123 123 123 120 120 120 102 102 102 53 53 53 42 42 42 134 134 134 204 204 204 255 255 255 216 216 216 188 188 188 
195 195 195 200 200 200 205 205 205 208 208 208 210 210 210 210 210 210 207 207 207 200 200 200 191 191 191 180 180 180 166 166 166 149 149 149 131 131 131 110 110 110 87 87 87 61 61 61 33 33 33 1 1 1 29 29 29 45 45 45 43 43 43 39 39 39 34 34 34 27 27 27 17 17 17 4 4 4 11 11 11 27 27 27 44 44 44 53 53 53 45 45 45 33 33 33 18 18 18 0 0 0 18 18 18 33 33 33 45 45 45 53 53 53 58 58 58 61 61 61 62 62 62 54 54 54 20 20 20 18 18 18 54 54 54 64 64 64 76 76 76 89 89 89 95 95 95 96 96 96 93 93 93 82 82 82 54 54 54 0 0 0 74 74 74 140 140 140 191 191 191 215 215 215 204 204 204 184 184 184 
200 200 200 206 206 206 212 212 212 217 217 217 220 220 220 220 220 220 217 217 217 210 210 210 200 200 200 187 187 187 171 171 171 154 154 154 134 134 134 112 112 112 87 87 87 59 59 59 27 27 27 6 6 6 38 38 38 65 65 65 67 67 67 67 67 67 65 65 65 62 62 62 57 57 57 49 49 49 38 38 38 25 25 25 8 8 8 8 8 8 25 25 25 26 26 26 14 14 14 0 0 0 14 14 14 26 26 26 37 37 37 44 44 44 50 50 50 53 53 53 55 55 55 43 43 43 12 12 12 22 22 22 55 55 55 66 66 66 76 76 76 78 78 78 77 77 77 74 74 74 66 66 66 49 49 49 18 18 18 31 31 31 84 84 84 131 131 131 165 165 165 182 182 182 181 181 181 171 171 171 
203 203 203 211 211 211 218 218 218 225 225 225 230 230 230 231 231 231 228 228 228 219 219 219 207 207 207 192 192 192 176 176 176 157 157 157 136 136 136 112 112 112 85 85 85 55 55 55 21 21 21 16 16 16 48 48 48 76 76 76 89 89 89 91 91 91 93 93 93 93 93 93 92 92 92 88 88 88 81 81 81 71 71 71 59 59 59 44 44 44 27 27 27 11 11 11 4 4 4 0 0 0 11 11 11 21 21 21 30 30 30 37 37 37 42 42 42 46 46 46 48 48 48 34 34 34 5 5 5 25 25 25 54 54 54 64 64 64 65 65 65 64 64 64 61 61 61 54 54 54 43 43 43 23 23 23 7 7 7 45 45 45 83 83 83 117 117 117 143 143 143 157 157 157 159 159 159 155 155 155 
206 206 206 214 214 214 222 222 222 231 231 231 239 239 239 243 243 243 237 237 237 226 226 226 212 212 212 196 196 196 178 178 178 158 158 158 136 136 136 111 111 111 82 82 82 50 50 50 13 13 13 25 25 25 59 59 59 87 87 87 109 109 109 114 114 114 118 118 118 121 121 121 122 122 122 121 121 121 118 118 118 110 110 110 100 100 100 87 87 87 72 72 72 55 55 55 39 39 39 24 24 24 1 1 1 18 18 18 25 25 25 32 32 32 36 36 36 40 40 40 43 43 43 26 26 26 0 0 0 27 27 27 53 53 53 55 55 55 54 54 54 51 51 51 46 46 46 37 37 37 24 24 24 4 4 4 21 21 21 50 50 50 79 79 79 105 105 105 124 124 124 136 136 136 140 140 140 139 139 139 
206 206 206 214 214 214 223 223 223 233 233 233 243 243 243 255 255 255 242 242 242 229 229 229 214 214 214 197 197 197 178 178 178 158 158 158 134 134 134 108 108 108 78 78 78 43 43 43 4 4 4 36 36 36 69 69 69 98 98 98 122 122 122 133 133 133 140 140 140 145 145 145 149 149 149 151 151 151 149 149 149 143 143 143 134 134 134 122 122 122 107 107 107 91 91 91 74 74 74 58 58 58 37 37 37 16 16 16 3 3 3 19 19 19 31 31 31 35 35 35 38 38 38 20 20 20 4 4 4 29 29 29 47 47 47 46 46 46 43 43 43 39 39 39 33 33 33 24 24 24 10 10 10 7 7 7 29 29 29 52 52 52 74 74 74 94 94 94 109 109 109 119 119 119 124 124 124 125 125 125 
205 205 205 213 213 213 221 221 221 230 230 230 238 238 238 243 243 243 237 237 237 225 225 225 211 211 211 194 194 194 176 176 176 155 155 155 131 131 131 103 103 103 72 72 72 36 36 36 6 6 6 46 46 46 80 80 80 108 108 108 132 132 132 150 150 150 158 158 158 166 166 166 172 172 172 176 176 176 176 176 176 171 171 171 162 162 162 150 150 150 135 135 135 118 118 118 102 102 102 86 86 86 65 65 65 45 45 45 26 26 26 9 9 9 5 5 5 17 17 17 27 27 27 14 14 14 8 8 8 29 29 29 40 40 40 38 38 38 34 34 34 29 29 29 22 22 22 13 13 13 0 0 0 16 16 16 33 33 33 51 51 51 69 69 69 85 85 85 97 97 97 106 106 106 111 111 111 113 113 113 
202 202 202 209 209 209 216 216 216 223 223 223 229 229 229 230 230 230 226 226 226 217 217 217 204 204 204 188 188 188 170 170 170 149 149 149 125 125 125 97 97 97 64 64 64 26 26 26 16 16 16 56 56 56 89 89 89 117 117 117 141 141 141 162 162 162 174 174 174 184 184 184 192 192 192 198 198 198 200 200 200 195 195 195 186 186 186 172 172 172 157 157 157 140 140 140 123 123 123 107 107 107 87 87 87 68 68 68 50 50 50 33 33 33 18 18 18 4 4 4 6 6 6 9 9 9 10 10 10 30 30 30 33 33 33 30 30 30 26 26 26 21 21 21 14 14 14 4 4 4 7 7 7 21 21 21 35 35 35 50 50 50 64 64 64 77 77 77 87 87 87 95 95 95 100 100 100 102 102 102 
197 197 197 204 204 204 210 210 210 215 215 215 218 218 218 218 218 218 214 214 214 206 206 206 195 195 195 180 180 180 162 162 162 141 141 141 117 117 117 89 89 89 56 56 56 16 16 16 26 26 26 64 64 64 97 97 97 125 125 125 149 149 149 170 170 170 186 186 186 197 197 197 208 208 208 217 217 217 220 220 220 215 215 215 204 204 204 189 189 189 173 173 173 156 156 156 140 140 140 123 123 123 105 105 105 87 87 87 69 69 69 53 53 53 38 38 38 24 24 24 12 12 12 1 1 1 12 12 12 30 30 30 27 27 27 24 24 24 20 20 20 14 14 14 7 7 7 1 1 1 12 12 12 24 24 24 36 36 36 48 48 48 60 60 60 70 70 70 79 79 79 86 86 86 90 90 90 93 93 93 
192 192 192 197 197 197 201 201 201 205 205 205 207 207 207 206 206 206 202 202 202 195 195 195 184 184 184 170 170 170 153 153 153 132 132 132 108 108 108 80 80 80 46 46 46 6 6 6 36 36 36 72 72 72 103 103 103 131 131 131 155 155 155 176 176 176 193 193 193 207 207 207 220 220 220 232 232 232 238 238 238 231 231 231 217 217 217 201 201 201 185 185 185 168 168 168 151 151 151 135 135 135 118 118 118 101 101 101 84 84 84 68 68 68 54 54 54 40 40 40 28 28 28 17 17 17 6 6 6 25 25 25 22 22 22 18 18 18 14 14 14 8 8 8 1 1 1 6 6 6 16 16 16 25 25 25 36 36 36 46 46 46 56 56 56 64 64 64 72 72 72 78 78 78 82 82 82 85 85 85 
184 184 184 189 189 189 193 193 193 195 195 195 195 195 195 194 194 194 189 189 189 182 182 182 172 172 172 158 158 158 142 142 142 122 122 122 98 98 98 69 69 69 36 36 36 4 4 4 43 43 43 78 78 78 108 108 108 134 134 134 158 158 158 175 175 175 191 191 191 208 208 208 224 224 224 239 239 239 255 255 255 239 239 239 223 223 223 207 207 207 191 191 191 175 175 175 159 159 159 144 144 144 127 127 127 111 111 111 95 95 95 81 81 81 67 67 67 53 53 53 42 42 42 30 30 30 6 6 6 17 17 17 17 17 17 13 13 13 9 9 9 3 3 3 2 2 2 10 10 10 18 18 18 26 26 26 35 35 35 44 44 44 52 52 52 60 60 60 66 66 66 71 71 71 76 76 76 78 78 78 
175 175 175 179 179 179 181 181 181 183 183 183 184 184 184 182 182 182 177 177 177 170 170 170 160 160 160 147 147 147 130 130 130 111 111 111 87 87 87 59 59 59 25 25 25 13 13 13 50 50 50 82 82 82 111 111 111 135 135 135 151 151 151 168 168 168 185 185 185 202 202 202 218 218 218 232 232 232 239 239 239 233 233 233 221 221 221 207 207 207 193 193 193 178 178 178 163 163 163 149 149 149 134 134 134 119 119 119 104 104 104 90 90 90 77 77 77 64 64 64 53 53 53 39 39 39 17 17 17 5 5 5 13 13 13 9 9 9 5 5 5 0 0 0 6 6 6 12 12 12 19 19 19 27 27 27 34 34 34 42 42 42 49 49 49 55 55 55 61 61 61 66 66 66 70 70 70 72 72 72 
165 165 165 167 167 167 169 169 169 170 170 170 170 170 170 168 168 168 163 163 163 157 157 157 147 147 147 134 134 134 118 118 118 99 99 99 76 76 76 48 48 48 16 16 16 21 21 21 55 55 55 85 85 85 106 106 106 122 122 122 139 139 139 157 157 157 174 174 174 190 190 190 205 205 205 216 216 216 221 221 221 218 218 218 210 210 210 199 199 199 188 188 188 177 177 177 165 165 165 152 152 152 138 138 138 124 124 124 110 110 110 97 97 97 85 85 85 73 73 73 61 61 61 47 47 47 26 26 26 5 5 5 9 9 9 6 6 6 1 1 1 3 3 3 8 8 8 14 14 14 20 20 20 27 27 27 34 34 34 40 40 40 46 46 46 52 52 52 57 57 57 61 61 61 64 64 64 67 67 67 
154 154 154 155 155 155 156 156 156 156 156 156 155 155 155 152 152 152 147 147 147 140 140 140 131 131 131 121 121 121 107 107 107 88 88 88 65 65 65 38 38 38 6 6 6 27 27 27 59 59 59 73 73 73 89 89 89 106 106 106 123 123 123 140 140 140 158 158 158 173 173 173 187 187 187 197 197 197 201 201 201 200 200 200 194 194 194 186 186 186 177 177 177 167 167 167 158 158 158 149 149 149 140 140 140 127 127 127 115 115 115 102 102 102 91 91 91 79 79 79 69 69 69 54 54 54 34 34 34 15 15 15 5 5 5 3 3 3 0 0 0 5 5 5 10 10 10 15 15 15 21 21 21 27 27 27 33 33 33 38 38 38 44 44 44 48 48 48 53 53 53 57 57 57 60 60 60 62 62 62 
142 142 142 143 143 143 143 143 143 142 142 142 139 139 139 135 135 135 129 129 129 122 122 122 112 112 112 100 100 100 86 86 86 71 71 71 53 53 53 29 29 29 1 1 1 25 25 25 37 37 37 51 51 51 67 67 67 84 84 84 101 101 101 119 119 119 136 136 136 151 151 151 164 164 164 174 174 174 178 178 178 179 179 179 175 175 175 170 170 170 162 162 162 154 154 154 146 146 146 138 138 138 131 131 131 124 124 124 117 117 117 106 106 106 95 95 95 84 84 84 74 74 74 59 59 59 41 41 41 23 23 23 4 4 4 0 0 0 3 3 3 7 7 7 11 11 11 16 16 16 21 21 21 26 26 26 32 32 32 36 36 36 41 41 41 46 46 46 50 50 50 53 53 53 56 56 56 58 58 58 
130 130 130 129 129 129 128 128 128 126 126 126 123 123 123 117 117 117 111 111 111 102 102 102 91 91 91 78 78 78 63 63 63 45 45 45 26 26 26 4 4 4 9 9 9 0 0 0 11 11 11 24 24 24 39 39 39 56 56 56 73 73 73 91 91 91 108 108 108 124 124 124 137 137 137 147 147 147 153 153 153 155 155 155 154 154 154 150 150 150 145 145 145 139 139 139 132 132 132 126 126 126 119 119 119 113 113 113 108 108 108 102 102 102 97 97 97 88 88 88 79 79 79 63 63 63 47 47 47 30 30 30 13 13 13 1 1 1 5 5 5 8 8 8 13 13 13 17 17 17 21 21 21 26 26 26 31 31 31 35 35 35 39 39 39 43 43 43 47 47 47 50 50 50 52 52 52 55 55 55 
117 117 117 115 115 115 113 113 113 110 110 110 105 105 105 99 99 99 91 91 91 81 81 81 68 68 68 54 54 54 37 37 37 17 17 17 4 4 4 26 26 26 33 33 33 27 27 27 19 19 19 8 8 8 4 4 4 21 21 21 38 38 38 56 56 56 74 74 74 91 91 91 105 105 105 116 116 116 123 123 123 127 127 127 129 129 129 127 127 127 124 124 124 121 121 121 116 116 116 111 111 111 106 106 106 101 101 101 97 97 97 92 92 92 88 88 88 84 84 84 81 81 81 67 67 67 52 52 52 36 36 36 20 20 20 0 0 0 6 6 6 10 10 10 13 13 13 17 17 17 21 21 21 25 25 25 30 30 30 33 33 33 37 37 37 41 41 41 44 44 44 47 47 47 49 49 49 51 51 51 
103 103 103 101 101 101 98 98 98 93 93 93 87 87 87 80 80 80 70 70 70 58 58 58 44 44 44 28 28 28 8 8 8 13 13 13 33 33 33 53 53 53 56 56 56 53 53 53 49 49 49 42 42 42 33 33 33 21 21 21 6 6 6 12 12 12 32 32 32 50 50 50 66 66 66 79 79 79 89 89 89 96 96 96 100 100 100 102 102 102 102 102 102 100 100 100 98 98 98 95 95 95 92 92 92 88 88 88 85 85 85 82 82 82 78 78 78 75 75 75 73 73 73 70 70 70 55 55 55 41 41 41 24 24 24 6 6 6 7 7 7 11 11 11 14 14 14 18 18 18 21 21 21 25 25 25 29 29 29 32 32 32 35 35 35 39 39 39 42 42 42 44 44 44 47 47 47 49 49 49 
90 90 90 86 86 86 82 82 82 76 76 76 69 69 69 60 60 60 48 48 48 35 35 35 19 19 19 0 0 0 20 20 20 40 40 40 59 59 59 77 77 77 78 78 78 78 78 78 76 76 76 74 74 74 69 69 69 61 61 61 51 51 51 37 37 37 19 19 19 0 0 0 19 19 19 37 37 37 51 51 51 61 61 61 69 69 69 74 74 74 76 76 76 78 78 78 78 78 78 77 77 77 76 76 76 74 74 74 72 72 72 70 70 70 68 68 68 66 66 66 64 64 64 62 62 62 58 58 58 44 44 44 28 28 28 11 11 11 5 5 5 11 11 11 14 14 14 18 18 18 21 21 21 24 24 24 28 28 28 31 31 31 34 34 34 37 37 37 39 39 39 42 42 42 44 44 44 46 46 46 
76 76 76 71 71 71 65 65 65 58 58 58 50 50 50 39 39 39 26 26 26 10 10 10 7 7 7 26 26 26 45 45 45 64 64 64 81 81 81 95 95 95 98 98 98 100 100 100 102 102 102 102 102 102 100 100 100 96 96 96 89 89 89 79 79 79 66 66 66 50 50 50 32 32 32 12 12 12 6 6 6 21 21 21 33 33 33 42 42 42 49 49 49 53 53 53 56 56 56 58 58 58 58 58 58 58 58 58 58 58 58 57 57 57 56 56 56 55 55 55 54 54 54 53 53 53 52 52 52 47 47 47 32 32 32 16 16 16 0 0 0 12 12 12 15 15 15 18 18 18 21 21 21 24 24 24 27 27 27 30 30 30 32 32 32 35 35 35 38 38 38 40 40 40 42 42 42 43 43 43 
61 61 61 56 56 56 49 49 49 40 40 40 30 30 30 18 18 18 3 3 3 13 13 13 31 31 31 49 49 49 66 66 66 84 84 84 100 100 100 111 111 111 116 116 116 121 121 121 124 124 124 127 127 127 129 129 129 127 127 127 123 123 123 116 116 116 105 105 105 91 91 91 74 74 74 56 56 56 38 38 38 21 21 21 4 4 4 8 8 8 19 19 19 27 27 27 33 33 33 37 37 37 40 40 40 42 42 42 43 43 43 44 44 44 45 45 45 45 45 45 44 44 44 44 44 44 44 44 44 43 43 43 34 34 34 20 20 20 5 5 5 9 9 9 15 15 15 18 18 18 20 20 20 23 23 23 26 26 26 29 29 29 31 31 31 34 34 34 36 36 36 38 38 38 40 40 40 41 41 41 
47 47 47 40 40 40 32 32 32 22 22 22 11 11 11 3 3 3 18 18 18 34 34 34 51 51 51 68 68 68 84 84 84 101 101 101 117 117 117 126 126 126 132 132 132 139 139 139 145 145 145 150 150 150 154 154 154 155 155 155 153 153 153 147 147 147 137 137 137 124 124 124 108 108 108 91 91 91 73 73 73 56 56 56 39 39 39 24 24 24 11 11 11 0 0 0 9 9 9 16 16 16 21 21 21 25 25 25 28 28 28 31 31 31 32 32 32 33 33 33 34 34 34 35 35 35 35 35 35 35 35 35 35 35 35 23 23 23 9 9 9 4 4 4 15 15 15 18 18 18 20 20 20 23 23 23 25 25 25 28 28 28 30 30 30 32 32 32 34 34 34 36 36 36 38 38 38 39 39 39 
33 33 33 25 25 25 16 16 16 5 5 5 8 8 8 22 22 22 36 36 36 52 52 52 68 68 68 84 84 84 100 100 100 115 115 115 130 130 130 138 138 138 146 146 146 154 154 154 162 162 162 170 170 170 175 175 175 179 179 179 178 178 178 174 174 174 164 164 164 151 151 151 136 136 136 119 119 119 101 101 101 84 84 84 67 67 67 51 51 51 37 37 37 25 25 25 14 14 14 5 5 5 2 2 2 8 8 8 13 13 13 17 17 17 20 20 20 22 22 22 24 24 24 25 25 25 26 26 26 27 27 27 28 28 28 26 26 26 13 13 13 0 0 0 13 13 13 17 17 17 20 20 20 22 22 22 24 24 24 27 27 27 29 29 29 31 31 31 33 33 33 34 34 34 36 36 36 38 38 38 
19 19 19 10 10 10 0 0 0 11 11 11 24 24 24 38 38 38 52 52 52 67 67 67 82 82 82 97 97 97 112 112 112 127 127 127 140 140 140 149 149 149 158 158 158 167 167 167 177 177 177 186 186 186 194 194 194 200 200 200 201 201 201 197 197 197 187 187 187 173 173 173 158 158 158 140 140 140 123 123 123 106 106 106 89 89 89 73 73 73 59 59 59 46 46 46 34 34 34 24 24 24 15 15 15 8 8 8 1 1 1 3 3 3 7 7 7 11 11 11 14 14 14 16 16 16 18 18 18 19 19 19 20 20 20 21 21 21 16 16 16 3 3 3 8 8 8 17 17 17 19 19 19 22 22 22 24 24 24 26 26 26 28 28 28 30 30 30 31 31 31 33 33 33 34 34 34 36 36 36 
5 5 5 4 4 4 14 14 14 26 26 26 38 38 38 51 51 51 65 65 65 79 79 79 93 93 93 108 108 108 122 122 122 137 137 137 148 148 148 157 157 157 167 167 167 177 177 177 188 188 188 199 199 199 210 210 210 218 218 218 221 221 221 216 216 216 205 205 205 190 190 190 174 174 174 157 157 157 139 139 139 122 122 122 106 106 106 90 90 90 76 76 76 63 63 63 51 51 51 40 40 40 31 31 31 23 23 23 16 16 16 9 9 9 4 4 4 0 0 0 3 3 3 6 6 6 9 9 9 11 11 11 13 13 13 15 15 15 16 16 16 7 7 7 4 4 4 15 15 15 19 19 19 21 21 21 23 23 23 25 25 25 27 27 27 28 28 28 30 30 30 32 32 32 33 33 33 34 34 34 
7 7 7 17 17 17 27 27 27 38 38 38 50 50 50 63 63 63 76 76 76 89 89 89 103 103 103 116 116 116 130 130 130 144 144 144 154 154 154 164 164 164 174 174 174 185 185 185 196 196 196 208 208 208 221 221 221 233 233 233 239 239 239 232 232 232 218 218 218 202 202 202 185 185 185 168 168 168 151 151 151 135 135 135 119 119 119 104 104 104 89 89 89 76 76 76 64 64 64 54 54 54 44 44 44 35 35 35 28 28 28 21 21 21 15 15 15 10 10 10 6 6 6 2 2 2 1 1 1 3 3 3 6 6 6 8 8 8 9 9 9 10 10 10 0 0 0 11 11 11 19 19 19 21 21 21 22 22 22 24 24 24 26 26 26 27 27 27 29 29 29 30 30 30 32 32 32 33 33 33 
